packages/icons/svg/24/ShowOutline.svg

<svg width="24" height="24" viewBox="0 0 24 24" fill="none" xmlns="http://www.w3.org/2000/svg">
<path fill-rule="evenodd" clip-rule="evenodd" d="M3.35014 12C6.13231 16.2924 9.04437 18 12 18C14.9556 18 17.8677 16.2924 20.6499 12C17.8677 7.70759 14.9556 6 12 6C9.04437 6 6.13231 7.70759 3.35014 12ZM23 12C19.8571 17.3333 16.1905 20 12 20C7.80952 20 4.14286 17.3333 1 12C4.14286 6.66667 7.80952 4 12 4C16.1905 4 19.8571 6.66667 23 12Z" fill="#858585"/>
<path fill-rule="evenodd" clip-rule="evenodd" d="M16.5 12C16.5 14.4853 14.4853 16.5 12 16.5C9.51472 16.5 7.5 14.4853 7.5 12C7.5 9.51472 9.51472 7.5 12 7.5C14.4853 7.5 16.5 9.51472 16.5 12ZM12 14.5C13.3807 14.5 14.5 13.3807 14.5 12C14.5 10.6193 13.3807 9.5 12 9.5C10.6193 9.5 9.5 10.6193 9.5 12C9.5 13.3807 10.6193 14.5 12 14.5Z" fill="#858585"/>
</svg>

<svg width="24" height="24" fill="none" xmlns="http://www.w3.org/2000/svg" viewBox="0 0 24 24"><path fill-rule="evenodd" clip-rule="evenodd" d="M3.35 12c2.782 4.292 5.694 6 8.65 6 2.956 0 5.868-1.708 8.65-6-2.782-4.292-5.694-6-8.65-6-2.956 0-5.868 1.708-8.65 6zM23 12c-3.143 5.333-6.81 8-11 8s-7.857-2.667-11-8c3.143-5.333 6.81-8 11-8s7.857 2.667 11 8z" fill="currentColor"></path><path fill-rule="evenodd" clip-rule="evenodd" d="M16.5 12a4.5 4.5 0 11-9 0 4.5 4.5 0 019 0zM12 14.5a2.5 2.5 0 100-5 2.5 2.5 0 000 5z" fill="currentColor"></path></svg>
